X:124020
T: Barren Rocks of Aden Simplified
H: The tune is said to have been composed by piper James Mauchline, who was delighted that his regiment was leaving the hot, dry port of Aden, in what is now South Yemen, in Arabia. It rains less than once a year in Aden and the Old Town is inside the shell of an extinct volcano.  Regimental tradition says that James Mauchline gave it no title. While a detachment of the 78th Seaforth Highlanders Regiment was stationed in Aden, Pipe Major Alexander Mackellar rearranged and named the tune.
C: James Mauchline (Gordon Highlanders)/ Pipe Major A MacKellar (78th Seaforth)
B: Scots Guards (I.116) / Canadian Cadet Program
O:Kevin Fraser
Z:Kevin Fraser
Q:1/4=90
K:HP
M:2/4
L:1/8
R:March
U: R = ///
U: r = //
U: V = !accent!
V:M gstem=up stem=down name="Melody"
V:H gstem=up stem=down name="Harmony"
V:C gstem=up stem=down name="C-Harmony"
V:S gstem=up stem=down dyn=up stafflines=1 clef=perc middle=G name="Snare" sname="Snare"
V:B gstem=up stem=down clef=none dyn=up name="Bass"
V:T gstem=up stem=down clef=none dyn=up name="Tenor"
I:MIDI=program 110
[V:M] |: e/2 | {g}f>g {fg}f>e | {Gdc}df {AGAG}Ad | "A"{g}ce {AGAG}A>e | "D"{g}fA "A"{Gdc}d>e | $
w:  e/2 | {g}f> g {fg}f> e | {Gdc}d f {AGAG}A d | {g}c e {AGAG}A> e | {g}f A {Gdc}d> e | $
[V:M]        | "D"{g}f>g {fg}f>e | {Gdc}df {AGAG}Ad | "A"{gcd}ce {AGAG}A{g}f/2>e/2 | "D"{Gdc}d2 {g}d :| $
w:        | {g}f> g {fg}f> e | {Gdc}d f {AGAG}A d | "A"{g}c e {AGAG}A {g}f/2> e/2 | {Gdc}d2 {g}d :| $
[V:M] |: g | {ag}a>f {Gdc}d>f | {g}ef {AGAG}A{g}e/2>f/2 | {gf}g>e {g}ce | {Gdc}df {AGAG}Ag | $
w:  g | {ag}a> f {Gdc}d> f | {g}e f {AGAG}A {g}e/2> f/2 | {gf}g> e {g}c e | {Gdc}d f {AGAG}A g | $
[V:M]          | {ag}a>f {Gdc}d>f | {g}ef {AGAG}A{g}e/2>f/2 | g>e {g}c{e}A | "D"{Gdc}d2 {g}d :| $
w:         | {ag}a> f {Gdc}d> f | {g}e f {AGAG}A {g}e/2> f/2 | g> e {g}c {e}A | {Gdc}d2 {g}d :| $


